X: 10756
T: Dr. Iain MacAonghais
R: jig
M: 6/8
K: Dmajor
Add d2e|faa fge|fdB BBc|ddd edB|
Add d2e|faa fge|fdB Adf|1 edd d2B:|2 edd d2||
|:e|f3- fdB|fdB- Bff|fdB ecA|ecA- Aee|
fdB fdB-|Bff fdB|edB Adf|edd d2:|
|:B|AAA B2A|BBB d2A|fAA B2A|fAA dBA|
BBB d2A|fAA B2A|fdB Adf|edd d2:|
f|a2f add|ddd dBA|BBB ddA|fAA dBA|
faf add|ddd dBA|fdB Adf|edd d2f|
a2f add|ddd dBA|fAA ddd|ddd dBA|
BBB ccA|dAA fff|fff AfA|edd d2||

